images_breeze_svg/cmd/sc_saveasremote.svg

<svg viewBox="0 0 16 16" xmlns="http://www.w3.org/2000/svg"><path d="m2 2v9h1v-8h1 1v3 1h6v-1-3h.28125l1.71875 1.71875v.28125 6h1v-6.71875l-2.28125-2.28125h-.03125-.6875-7-1zm4 1h1.90625v3h-1.90625zm-2.03125 6v2h1.03125v-1h1 4 1v1h1v-2h-1-6zm2.03125 2v1h-4v1h4v1h4v-1h4v-1h-4v-1zm1 1h1 1v1h-1-1z" fill="#4d4d4d"/></svg>

<?xml version="1.0" encoding="UTF-8" standalone="no"?>
<svg
   xmlns:dc="http://purl.org/dc/elements/1.1/"
   xmlns:cc="http://creativecommons.org/ns#"
   xmlns:rdf="http://www.w3.org/1999/02/22-rdf-syntax-ns#"
   xmlns:svg="http://www.w3.org/2000/svg"
   xmlns="http://www.w3.org/2000/svg"
   xmlns:sodipodi="http://sodipodi.sourceforge.net/DTD/sodipodi-0.dtd"
   xmlns:inkscape="http://www.inkscape.org/namespaces/inkscape"
   viewBox="0 0 16 16"
   version="1.1"
   id="svg6"
   sodipodi:docname="sc_saveasremote.svg"
   inkscape:version="0.92.4 (unknown)"
   inkscape:export-filename="/home/rizmut/Dokumen/Rizmut/Github/tmp/breeze/cmd/sc_saveasremote.png"
   inkscape:export-xdpi="96"
   inkscape:export-ydpi="96">
  <metadata
     id="metadata10">
    <rdf:RDF>
      <cc:Work
         rdf:about="">
        <dc:format>image/svg+xml</dc:format>
        <dc:type
           rdf:resource="http://purl.org/dc/dcmitype/StillImage" />
        <dc:title></dc:title>
      </cc:Work>
    </rdf:RDF>
  </metadata>
  <sodipodi:namedview
     pagecolor="#ffffff"
     bordercolor="#666666"
     borderopacity="1"
     objecttolerance="10"
     gridtolerance="10"
     guidetolerance="10"
     inkscape:pageopacity="0"
     inkscape:pageshadow="2"
     inkscape:window-width="1360"
     inkscape:window-height="714"
     id="namedview8"
     showgrid="true"
     inkscape:zoom="14.75"
     inkscape:cx="1.8274976"
     inkscape:cy="0.54947045"
     inkscape:window-x="0"
     inkscape:window-y="28"
     inkscape:window-maximized="1"
     inkscape:current-layer="svg6">
    <inkscape:grid
       type="xygrid"
       id="grid817" />
  </sodipodi:namedview>
  <defs
     id="defs3051">
    <style
       type="text/css"
       id="current-color-scheme">
      .ColorScheme-Text {
        color:#4d4d4d;
      }
      </style>
  </defs>
  <path
     style="fill:#4d4d4d;fill-opacity:1;stroke:none"
     d="M 2 2 L 2 11 L 3 11 L 3 3 L 4 3 L 5 3 L 5 6 L 5 7 L 11 7 L 11 6 L 11 3 L 11.28125 3 L 13 4.71875 L 13 5 L 13 11 L 14 11 L 14 4.28125 L 11.71875 2 L 11.6875 2 L 11 2 L 4 2 L 3 2 L 2 2 z M 6 3 L 7.90625 3 L 7.90625 6 L 6 6 L 6 3 z M 3.96875 9 L 3.96875 11 L 5 11 L 5 10 L 6 10 L 10 10 L 11 10 L 11 11 L 12 11 L 12 9 L 11 9 L 5 9 L 3.96875 9 z M 6 11 L 6 12 L 2 12 L 2 13 L 6 13 L 6 14 L 10 14 L 10 13 L 14 13 L 14 12 L 10 12 L 10 11 L 6 11 z M 7 12 L 8 12 L 9 12 L 9 13 L 8 13 L 7 13 L 7 12 z "
     id="path4" />
</svg>
